X: 2
T: Scollay's Reel (R-19; AKA King of the Fairies)
I: Scollay's Reel	R-19	Em	reel
I: King of the Fairies	R-19	Em	reel
M: C|
R: reel
K: Em
"Em"E3F G3A| BcBA GEGA| B2E2 EFG2| "D"FGAF D2F2|
"Em"E3F G3A| BcBA GEGA| B3c "B7"BAFA| "Em"G2E2 E4 :|
|:"Em"efge B2B2| g2g2 B4| "Am"c2BA "Em"G2G2| "D"FGAF D3F|
"Em"E3F G3A| BABd e2d2| B3c "B7"BAFA| "Em"G2E2 E4 :|

